brandFactory_export/3.Masa/Notas_3Masa.svg

<?xml version="1.0" encoding="UTF-8"?>
<svg width="24px" height="24px" viewBox="0 0 24 24" version="1.1" xmlns="http://www.w3.org/2000/svg" xmlns:xlink="http://www.w3.org/1999/xlink">
    <title>3.Masa/Notas_3Masa</title>
    <g id="Symbols" stroke="none" stroke-width="1" fill="none" fill-rule="evenodd">
        <g id="3.Masa/Notas_3Masa" fill="#5CB615" fill-rule="nonzero">
            <path d="M18.7310924,6.78991597 L13.8436975,1.98319328 L13.8436975,4.1210084 C13.8436975,4.90420168 14.0991597,5.58319328 14.5865546,6.05714286 C15.0705882,6.53109244 15.7663866,6.79327731 16.5831933,6.79327731 L18.7310924,6.79327731 L18.7310924,6.78991597 Z M20.4319328,6.45378151 C20.6302521,6.64537815 20.7445378,6.91764706 20.7445378,7.19663866 L20.7445378,21.9697479 C20.7445378,22.8705882 19.9848739,23.6235294 19.0806723,23.6235294 L4.68067227,23.6235294 C3.79663866,23.6235294 3.02689076,22.8470588 3.02689076,21.9697479 L3.02689076,1.65378151 C3.02689076,0.793277311 3.81680672,0 4.68067227,0 L13.4504202,0 C13.7260504,0 13.9815126,0.104201681 14.1731092,0.299159664 L20.4319328,6.45378151 Z M16.512605,13.5630252 C16.3310924,13.7378151 14.3344538,15.5462185 11.1680672,18.4 L8.78151261,19.2302521 L9.56134454,16.8705882 C10.0285714,16.4537815 14.6605042,12.292437 14.9630252,11.9865546 C15.2487395,11.697479 15.5512605,11.6369748 15.7731092,11.6571429 C16.0487395,11.6672269 16.3142857,11.7915966 16.5159664,11.9966387 C16.7243697,12.1983193 16.8487395,12.5109244 16.8487395,12.8 C16.8487395,13.0890756 16.7310924,13.3411765 16.512605,13.5630252 Z M17.5210084,10.9613445 C16.6470588,10.0705882 15.0773109,9.82857143 13.9546218,10.9613445 C13.9243697,10.9882353 13.8504202,11.0554622 13.7361345,11.1731092 L6.57647059,11.1731092 C6.18655462,11.1731092 5.86386555,11.502521 5.86386555,11.8991597 C5.86386555,12.3058824 6.18655462,12.6252101 6.57647059,12.6252101 L12.1394958,12.6252101 C11.702521,13.0117647 11.2252101,13.4487395 10.7142857,13.902521 L6.57647059,13.902521 C6.18655462,13.902521 5.86386555,14.2218487 5.86386555,14.6285714 C5.86386555,15.0252101 6.18655462,15.3546218 6.57647059,15.3546218 L9.09747899,15.3546218 L8.58319328,15.8184874 C8.42184874,15.9630252 8.29747899,16.1579832 8.22016807,16.3697479 L8.13613445,16.6218487 L6.57647059,16.6218487 C6.18655462,16.6218487 5.86386555,16.9411765 5.86386555,17.3478992 C5.86386555,17.7445378 6.18655462,18.0739496 6.57647059,18.0739496 L7.66218487,18.0739496 L7.31932773,19.1294118 C7.29243697,19.1966387 7.28235294,19.2739496 7.27226891,19.3411765 L6.57647059,19.3411765 C6.18655462,19.3411765 5.86386555,19.6705882 5.86386555,20.0672269 C5.86386555,20.4638655 6.18655462,20.7932773 6.57647059,20.7932773 L8.33445378,20.7932773 C8.35462185,20.7932773 8.37142857,20.7932773 8.39159664,20.7831933 C8.41848739,20.7932773 8.45882353,20.7932773 8.49579832,20.7932773 C8.62016807,20.7932773 8.7512605,20.7731092 8.88571429,20.7361345 L11.5983193,19.8184874 C11.7596639,19.7714286 11.9042017,19.6840336 12.0352941,19.5663866 L12.1193277,19.4890756 C14.4386555,17.3983193 17.2554622,14.8537815 17.5109244,14.605042 C18.005042,14.1142857 18.2739496,13.492437 18.2739496,12.8067227 C18.2739496,12.1310924 17.9983193,11.4453782 17.5210084,10.9613445 L17.5210084,10.9613445 Z" id="Notas_3Masa"></path>
        </g>
    </g>
</svg>

<svg width="24" height="24" viewBox="0 0 24 24" xmlns="http://www.w3.org/2000/svg"><path d="M18.731 6.79l-4.887-4.807v2.138c0 .783.255 1.462.743 1.936.484.474 1.18.736 1.996.736h2.148V6.79zm1.7-.336c.2.191.314.464.314.743V21.97c0 .9-.76 1.654-1.664 1.654H4.68c-.884 0-1.654-.777-1.654-1.654V1.654C3.027.794 3.817 0 4.68 0h8.77a1 1 0 01.722.3l6.259 6.154zm-3.918 7.109c-.182.175-2.179 1.983-5.345 4.837l-2.386.83.78-2.36c.467-.416 5.099-4.578 5.401-4.883.286-.29.588-.35.81-.33A1.158 1.158 0 0116.85 12.8c0 .29-.118.541-.336.763zm1.008-2.602c-.874-.89-2.444-1.132-3.566 0a4.19 4.19 0 00-.219.212h-7.16c-.39 0-.712.33-.712.726 0 .407.323.726.712.726h5.563c-.436.387-.914.824-1.425 1.278H6.576c-.39 0-.712.319-.712.726 0 .396.323.726.712.726h2.521l-.514.463c-.161.145-.286.34-.363.552l-.084.252h-1.56c-.39 0-.712.32-.712.726 0 .397.323.726.712.726h1.086l-.343 1.055c-.027.068-.037.145-.047.212h-.696c-.39 0-.712.33-.712.726 0 .397.323.726.712.726h1.758c.02 0 .037 0 .058-.01.026.01.067.01.104.01.124 0 .255-.02.39-.057l2.712-.918c.162-.047.306-.134.437-.252l.084-.077c2.32-2.09 5.136-4.635 5.392-4.884.494-.49.763-1.113.763-1.798a2.67 2.67 0 00-.753-1.846z" fill="#5CB615" fill-rule="nonzero"/></svg>
